static/img/mobile/button-pill.svg

<svg fill="none" height="48" viewBox="0 0 103 48" width="103" xmlns="http://www.w3.org/2000/svg" xmlns:xlink="http://www.w3.org/1999/xlink"><clipPath id="a"><path d="m16 12h71v24h-71z"/></clipPath><rect fill="#0063a3" height="48" rx="24" width="103"/><g clip-path="url(#a)"><path d="m24.5938 30-1.1172-3.1719h-4.3672l-1.1172 3.1719h-1.9766l4.25-11.4688h2.0782l4.2421 11.4688zm-1.6016-4.7812-1.086-3.125c-.0416-.1355-.1015-.3256-.1796-.5704-.0782-.25-.1563-.5026-.2344-.7578-.0781-.2604-.1432-.4791-.1953-.6562-.0521.2135-.1172.4531-.1953.7187-.073.2604-.1459.5052-.2188.7344-.0677.2292-.1198.4063-.1562.5313l-1.0938 3.125zm8.0703 4.9374c-1.0313 0-1.8594-.375-2.4844-1.125-.6198-.7552-.9297-1.8671-.9297-3.3359 0-1.4844.3151-2.6068.9454-3.3672.6354-.7604 1.4713-1.1406 2.5078-1.1406.4375 0 .8203.0599 1.1484.1797.3281.1146.6094.2708.8438.4687.2395.198.4427.4193.6093.6641h.086c-.0261-.1615-.0573-.3932-.0938-.6953-.0312-.3073-.0469-.5912-.0469-.8516v-3.1093h1.8438v12.1562h-1.4375l-.3281-1.1797h-.0782c-.1562.25-.3541.4766-.5937.6797-.2344.1979-.5156.3568-.8438.4766-.3229.1198-.7057.1796-1.1484.1796zm.5156-1.4921c.7865 0 1.3412-.2266 1.6641-.6797.3229-.4532.4896-1.1328.5-2.0391v-.2422c0-.9687-.1563-1.7109-.4688-2.2265-.3125-.5209-.8828-.7813-1.7109-.7813-.6615 0-1.1667.2682-1.5156.8047-.3438.5312-.5157 1.2734-.5157 2.2266 0 .9531.1719 1.6823.5157 2.1875.3489.5.8593.75 1.5312.75zm9.7031 1.4921c-1.0312 0-1.8593-.375-2.4843-1.125-.6198-.7552-.9297-1.8671-.9297-3.3359 0-1.4844.3151-2.6068.9453-3.3672.6354-.7604 1.4714-1.1406 2.5078-1.1406.4375 0 .8203.0599 1.1485.1797.3281.1146.6093.2708.8437.4687.2396.198.4427.4193.6094.6641h.0859c-.026-.1615-.0573-.3932-.0937-.6953-.0313-.3073-.0469-.5912-.0469-.8516v-3.1093h1.8437v12.1562h-1.4375l-.3281-1.1797h-.0781c-.1563.25-.3542.4766-.5938.6797-.2343.1979-.5156.3568-.8437.4766-.3229.1198-.7057.1796-1.1485.1796zm.5157-1.4921c.7864 0 1.3411-.2266 1.664-.6797.323-.4532.4896-1.1328.5-2.0391v-.2422c0-.9687-.1562-1.7109-.4687-2.2265-.3125-.5209-.8828-.7813-1.711-.7813-.6614 0-1.1666.2682-1.5156.8047-.3437.5312-.5156 1.2734-.5156 2.2266 0 .9531.1719 1.6823.5156 2.1875.349.5.8594.75 1.5313.75zm20.9219 1.3359h-2.3047l-5.5938-9.1172h-.0703c.0208.3073.0391.6328.0547.9766.0208.3437.0364.6979.0469 1.0625.0156.3646.0286.7343.039 1.1093v5.9688h-1.7031v-11.4219h2.2891l5.5859 9.0547h.0547c-.0104-.2656-.0234-.5703-.0391-.914-.0156-.3438-.0312-.698-.0469-1.0626-.0104-.3697-.0182-.7265-.0234-1.0703v-6.0078h1.711zm6.5078-8.8125c.7708 0 1.4323.1589 1.9843.4766.5521.3177.9766.7682 1.2735 1.3515.2968.5834.4453 1.2813.4453 2.0938v.9844h-5.7735c.0209.8385.2448 1.4843.6719 1.9374.4323.4532 1.0365.6797 1.8125.6797.5521 0 1.0469-.052 1.4844-.1562.4427-.1094.8984-.2682 1.3672-.4766v1.4922c-.4323.2031-.8724.3516-1.3203.4453-.4479.0938-.9844.1406-1.6094.1406-.849 0-1.5964-.164-2.2422-.4921-.6406-.3334-1.1432-.8282-1.5078-1.4844-.3594-.6563-.5391-1.4714-.5391-2.4453 0-.9688.1641-1.7917.4922-2.4688.3282-.6771.7891-1.1927 1.3828-1.5468.5938-.3542 1.2865-.5313 2.0782-.5313zm0 1.3828c-.5782 0-1.0469.1875-1.4063.5625-.3542.375-.5625.9245-.625 1.6484h3.9375c-.0052-.4322-.0781-.8151-.2187-1.1484-.1355-.3333-.3438-.5937-.625-.7812-.2761-.1875-.6302-.2813-1.0625-.2813zm13.0937 7.4219-1.0937-4.0234c-.0521-.198-.1146-.4376-.1875-.7188-.073-.2812-.1459-.5703-.2188-.8672-.0729-.3021-.1406-.5807-.2031-.8359-.0573-.2552-.1016-.4531-.1328-.5938h-.0625c-.0261.1407-.0677.3386-.125.5938s-.1224.5338-.1953.8359c-.073.3021-.1459.5964-.2188.8828-.0677.2865-.1302.5313-.1875.7344l-1.1484 3.9922h-2.0157l-2.4218-8.6484h1.8594l1.125 4.2968c.0729.2917.1432.6068.2109.9453.0729.3386.1354.6615.1875.9688s.0911.5599.1172.7578h.0625c.0208-.1406.0495-.3177.0859-.5313.0365-.2187.0781-.4453.125-.6796.0469-.2396.0938-.4636.1406-.6719.0469-.2136.0912-.3854.1328-.5156l1.3282-4.5703h2.0078l1.2734 4.5703c.0573.1979.1198.4479.1875.75.0677.2968.1276.5963.1797.8984.0573.2969.0938.5443.1094.7422h.0625c.0208-.1771.0573-.4167.1094-.7188.0573-.3073.1224-.6328.1953-.9765.0729-.349.1484-.6719.2265-.9688l1.1485-4.2968h1.8281l-2.4375 8.6484z" fill="#fff"/></g></svg>

<svg width="103" height="48" viewBox="0 0 103 48" fill="none" xmlns="http://www.w3.org/2000/svg">
<rect width="103" height="48" rx="24" fill="#0063A3"/>
<g clip-path="url(#clip0_645_123226)">
<path d="M24.5938 30L23.4766 26.8281H19.1094L17.9922 30H16.0156L20.2656 18.5312H22.3438L26.5859 30H24.5938ZM22.9922 25.2188L21.9062 22.0938C21.8646 21.9583 21.8047 21.7682 21.7266 21.5234C21.6484 21.2734 21.5703 21.0208 21.4922 20.7656C21.4141 20.5052 21.349 20.2865 21.2969 20.1094C21.2448 20.3229 21.1797 20.5625 21.1016 20.8281C21.0286 21.0885 20.9557 21.3333 20.8828 21.5625C20.8151 21.7917 20.763 21.9688 20.7266 22.0938L19.6328 25.2188H22.9922ZM31.0625 30.1562C30.0312 30.1562 29.2031 29.7812 28.5781 29.0312C27.9583 28.276 27.6484 27.1641 27.6484 25.6953C27.6484 24.2109 27.9635 23.0885 28.5938 22.3281C29.2292 21.5677 30.0651 21.1875 31.1016 21.1875C31.5391 21.1875 31.9219 21.2474 32.25 21.3672C32.5781 21.4818 32.8594 21.638 33.0938 21.8359C33.3333 22.0339 33.5365 22.2552 33.7031 22.5H33.7891C33.763 22.3385 33.7318 22.1068 33.6953 21.8047C33.6641 21.4974 33.6484 21.2135 33.6484 20.9531V17.8438H35.4922V30H34.0547L33.7266 28.8203H33.6484C33.4922 29.0703 33.2943 29.2969 33.0547 29.5C32.8203 29.6979 32.5391 29.8568 32.2109 29.9766C31.888 30.0964 31.5052 30.1562 31.0625 30.1562ZM31.5781 28.6641C32.3646 28.6641 32.9193 28.4375 33.2422 27.9844C33.5651 27.5312 33.7318 26.8516 33.7422 25.9453V25.7031C33.7422 24.7344 33.5859 23.9922 33.2734 23.4766C32.9609 22.9557 32.3906 22.6953 31.5625 22.6953C30.901 22.6953 30.3958 22.9635 30.0469 23.5C29.7031 24.0312 29.5312 24.7734 29.5312 25.7266C29.5312 26.6797 29.7031 27.4089 30.0469 27.9141C30.3958 28.4141 30.9062 28.6641 31.5781 28.6641ZM41.2812 30.1562C40.25 30.1562 39.4219 29.7812 38.7969 29.0312C38.1771 28.276 37.8672 27.1641 37.8672 25.6953C37.8672 24.2109 38.1823 23.0885 38.8125 22.3281C39.4479 21.5677 40.2839 21.1875 41.3203 21.1875C41.7578 21.1875 42.1406 21.2474 42.4688 21.3672C42.7969 21.4818 43.0781 21.638 43.3125 21.8359C43.5521 22.0339 43.7552 22.2552 43.9219 22.5H44.0078C43.9818 22.3385 43.9505 22.1068 43.9141 21.8047C43.8828 21.4974 43.8672 21.2135 43.8672 20.9531V17.8438H45.7109V30H44.2734L43.9453 28.8203H43.8672C43.7109 29.0703 43.513 29.2969 43.2734 29.5C43.0391 29.6979 42.7578 29.8568 42.4297 29.9766C42.1068 30.0964 41.724 30.1562 41.2812 30.1562ZM41.7969 28.6641C42.5833 28.6641 43.138 28.4375 43.4609 27.9844C43.7839 27.5312 43.9505 26.8516 43.9609 25.9453V25.7031C43.9609 24.7344 43.8047 23.9922 43.4922 23.4766C43.1797 22.9557 42.6094 22.6953 41.7812 22.6953C41.1198 22.6953 40.6146 22.9635 40.2656 23.5C39.9219 24.0312 39.75 24.7734 39.75 25.7266C39.75 26.6797 39.9219 27.4089 40.2656 27.9141C40.6146 28.4141 41.125 28.6641 41.7969 28.6641ZM62.7188 30H60.4141L54.8203 20.8828H54.75C54.7708 21.1901 54.7891 21.5156 54.8047 21.8594C54.8255 22.2031 54.8411 22.5573 54.8516 22.9219C54.8672 23.2865 54.8802 23.6562 54.8906 24.0312V30H53.1875V18.5781H55.4766L61.0625 27.6328H61.1172C61.1068 27.3672 61.0938 27.0625 61.0781 26.7188C61.0625 26.375 61.0469 26.0208 61.0312 25.6562C61.0208 25.2865 61.013 24.9297 61.0078 24.5859V18.5781H62.7188V30ZM69.2266 21.1875C69.9974 21.1875 70.6589 21.3464 71.2109 21.6641C71.763 21.9818 72.1875 22.4323 72.4844 23.0156C72.7812 23.599 72.9297 24.2969 72.9297 25.1094V26.0938H67.1562C67.1771 26.9323 67.401 27.5781 67.8281 28.0312C68.2604 28.4844 68.8646 28.7109 69.6406 28.7109C70.1927 28.7109 70.6875 28.6589 71.125 28.5547C71.5677 28.4453 72.0234 28.2865 72.4922 28.0781V29.5703C72.0599 29.7734 71.6198 29.9219 71.1719 30.0156C70.724 30.1094 70.1875 30.1562 69.5625 30.1562C68.7135 30.1562 67.9661 29.9922 67.3203 29.6641C66.6797 29.3307 66.1771 28.8359 65.8125 28.1797C65.4531 27.5234 65.2734 26.7083 65.2734 25.7344C65.2734 24.7656 65.4375 23.9427 65.7656 23.2656C66.0938 22.5885 66.5547 22.0729 67.1484 21.7188C67.7422 21.3646 68.4349 21.1875 69.2266 21.1875ZM69.2266 22.5703C68.6484 22.5703 68.1797 22.7578 67.8203 23.1328C67.4661 23.5078 67.2578 24.0573 67.1953 24.7812H71.1328C71.1276 24.349 71.0547 23.9661 70.9141 23.6328C70.7786 23.2995 70.5703 23.0391 70.2891 22.8516C70.013 22.6641 69.6589 22.5703 69.2266 22.5703ZM82.3203 29.9922L81.2266 25.9688C81.1745 25.7708 81.112 25.5312 81.0391 25.25C80.9661 24.9688 80.8932 24.6797 80.8203 24.3828C80.7474 24.0807 80.6797 23.8021 80.6172 23.5469C80.5599 23.2917 80.5156 23.0938 80.4844 22.9531H80.4219C80.3958 23.0938 80.3542 23.2917 80.2969 23.5469C80.2396 23.8021 80.1745 24.0807 80.1016 24.3828C80.0286 24.6849 79.9557 24.9792 79.8828 25.2656C79.8151 25.5521 79.7526 25.7969 79.6953 26L78.5469 29.9922H76.5312L74.1094 21.3438H75.9688L77.0938 25.6406C77.1667 25.9323 77.237 26.2474 77.3047 26.5859C77.3776 26.9245 77.4401 27.2474 77.4922 27.5547C77.5443 27.862 77.5833 28.1146 77.6094 28.3125H77.6719C77.6927 28.1719 77.7214 27.9948 77.7578 27.7812C77.7943 27.5625 77.8359 27.3359 77.8828 27.1016C77.9297 26.862 77.9766 26.638 78.0234 26.4297C78.0703 26.2161 78.1146 26.0443 78.1562 25.9141L79.4844 21.3438H81.4922L82.7656 25.9141C82.8229 26.112 82.8854 26.362 82.9531 26.6641C83.0208 26.9609 83.0807 27.2604 83.1328 27.5625C83.1901 27.8594 83.2266 28.1068 83.2422 28.3047H83.3047C83.3255 28.1276 83.362 27.888 83.4141 27.5859C83.4714 27.2786 83.5365 26.9531 83.6094 26.6094C83.6823 26.2604 83.7578 25.9375 83.8359 25.6406L84.9844 21.3438H86.8125L84.375 29.9922H82.3203Z" fill="white"/>
</g>
<defs>
<clipPath id="clip0_645_123226">
<rect width="71" height="24" fill="white" transform="translate(16 12)"/>
</clipPath>
</defs>
</svg>
